X: 1126
T: Missa – Deo gratias
C: Anonim
L: 1/4
M: C|
N: Derived from pl-kk--kk-i-68--009_anonim--missa-deo-gratias.krn
V: 1 clef=tenor
V: 2 clef=tenor
V: 3 clef=bass
K: C
[V:1] C4 | 
[V:2] G,4 | 
[V:3] C,D,E,C, | 
[V:1] C2B,2 | 
[V:2] G,2G,2 | 
[V:3] G,2G,,2 | 
[V:1] E4 | 
[V:2] C4 | 
[V:3] C,2E,2 | 
[V:1] E2D2 | 
[V:2] C2B,2 | 
[V:3] G,4 | 
[V:1] F2E2 | 
[V:2] D2C2 | 
[V:3] G,2C2 | 
[V:1] D2C2 | 
[V:2] [B,2G2]C2 | 
[V:3] G,2E,2 | 
[V:1] B,2C2 | 
[V:2] D2E2 | 
[V:3] G,4 | 
[V:1] D2E2 | 
[V:2] B,2C2 | 
[V:3] G,2C2 | 
[V:1] D4 | 
[V:2] B,4 | 
[V:3] G,4 | 
[V:1] D3D | 
[V:2] B,3B, | 
[V:3] G,3G, | 
[V:1] C4 |]  
[V:2] G,4 |]  
[V:3] C,4 |]  

